X:1
T: Ye'll aye be Welcome back again
C:
R:Strathspey
Q: 128
K:D
M:4/4
L:1/16
|:F2|D3F A3B AF3 A3B|D3F d3B AF3 E3F|D3F A3B A3B d3e|f3d e3f ddd2 d2F2|
D3F A3B AF3 A3B|D3F d3B AF3 E3F|D3F A3B A3B d3e|f3d e3f ddd2 d2g2|
fd3 d3f g3f e3d|cA3 eA3 fA3 e3g|fd3 d3f g3f e3d|c3d e3f ddd2 d3g|
fd3 d2ef g3f e3d|cA3 eA3 fA3 e3g|fd3 ge3 af3 b3g|f3d e3f ddd2 d2:|
